img/company_logo_cp.svg

<svg width="25" height="16" viewBox="0 0 25 16" fill="none" xmlns="http://www.w3.org/2000/svg">
<path d="M6.08 12.28C8.68 12.28 10.34 11.12 11.32 9.3L8.02 7.42C7.58 8.12 7.12 8.52 6.32 8.52C5.42 8.52 4.7 7.7 4.7 6.56V6.52C4.7 5.44 5.42 4.6 6.38 4.6C7.12 4.6 7.6 5 7.98 5.7L11.24 3.86C10.4 2.08 8.7 0.839999 6.3 0.839999C2.74 0.839999 0.34 3.5 0.34 6.56V6.6C0.34 9.66 2.76 12.28 6.08 12.28Z" fill="white"/>
<path d="M12.0277 15.2H16.5677V10.76C17.2677 11.54 18.1877 12.26 19.8477 12.26C22.4277 12.26 24.5077 9.96 24.5077 6.5V6.46C24.5077 3.12 22.4477 0.82 19.8077 0.82C18.1477 0.82 17.3077 1.62 16.5677 2.42V1.08H12.0277V15.2ZM18.2877 8.52C17.2477 8.52 16.4677 7.64 16.4677 6.56V6.52C16.4677 5.42 17.2477 4.56 18.2877 4.56C19.3277 4.56 20.1077 5.42 20.1077 6.52V6.56C20.1077 7.66 19.3277 8.52 18.2877 8.52Z" fill="#3ABF57"/>
</svg>

<svg width="25" height="16" fill="none" xmlns="http://www.w3.org/2000/svg"><path d="M6.08 12.28c2.6 0 4.26-1.16 5.24-2.98l-3.3-1.88c-.44.7-.9 1.1-1.7 1.1-.9 0-1.62-.82-1.62-1.96v-.04c0-1.08.72-1.92 1.68-1.92.74 0 1.22.4 1.6 1.1l3.26-1.84C10.4 2.08 8.7.84 6.3.84 2.74.84.34 3.5.34 6.56v.04c0 3.06 2.42 5.68 5.74 5.68z" fill="#fff"/><path d="M12.028 15.2h4.54v-4.44c.7.78 1.62 1.5 3.28 1.5 2.58 0 4.66-2.3 4.66-5.76v-.04c0-3.34-2.06-5.64-4.7-5.64-1.66 0-2.5.8-3.24 1.6V1.08h-4.54V15.2zm6.26-6.68c-1.04 0-1.82-.88-1.82-1.96v-.04c0-1.1.78-1.96 1.82-1.96s1.82.86 1.82 1.96v.04c0 1.1-.78 1.96-1.82 1.96z" fill="#3ABF57"/></svg>
